!!!OTL: 16. Schloap, Kingeken, ֵ¿chloap!
!!!ARE: Europa, Mitteleuropa, Deutschland, Oderbruch
!!!SCT: K0016
!!!TXL: @@NDS
!!!YEM: Copyright 1995, estate of Helmut Schaffrath.
**kern	**text
*clefG2	*
*M2/4	*
*k[b-]	*
*F:	*
=1	=1
{4a	Schloap,
16g	Kin-
16g	-ge-
8g	-ken,
=2	=2
4f	ſchloap!
8r}	.
{16c	vär-
16c	-re
=3	=3
8a	Däh-
8a	-re
8g	ſteht
8g	en
=4	=4
4f	Schoap,
4r}	.
=5	=5
{8a	up
8a	en
8a	Flur
16cc	e-
16cc	-ne
=6	=6
8cc	bun-
8b-	-te
4b-}	Kuh:
=7	=7
{16g	Kin-
16g	-ge-
8g	-ken
8g	doh
8b-	de
=8	=8
8a	O-
8g	-gen
4f}	to!
=9	=9
{4a	Schloap,
16g	Kinge-
16g	.
8g	-ken,
=10	=10
4f	ſchloap!
4r}	.
==	==
!!!AGN: Kinder -, Wiegen - Lied
!!!ONB: ESAC (Essen Associative Code) Database: KINDER
!!!AMT: simple duple
!!!AIN: vox
!!!EED: Helmut Schaffrath
!!!EEV: 1.0
!!Oderbruch: Erk J. 5, 18. Text Simrock 224d.
!!!GTL: I. Wiegenlieder.
!!!URL-scan: https://archive.org/details/DeutschesKinderliedUndKinderspiel/page/4/mode/1up
!!!ENC: Anna Maria Matuszewska
!!!EEV: 2024/29/08
*-	*-
